web-cancel.svg

<svg fill="currentColor" viewBox="0 0 24 24"><path d="M13.82 14H9.66c-.1-.66-.16-1.32-.16-2s.06-1.35.16-2h4.68c.09.65.16 1.32.16 2 0 .5-.04 1-.1 1.46.6-.5 1.32-.89 2.1-1.14V12c0-.68-.06-1.34-.14-2h3.38c.16.64.26 1.31.26 2v.18c.7.17 1.35.45 1.95.82.05-.32.05-.66.05-1 0-5.5-4.5-10-10-10C6.47 2 2 6.5 2 12s4.5 10 10 10c.34 0 .68 0 1-.05-.41-.66-.71-1.4-.87-2.2-.04.07-.08.14-.13.21-.83-1.2-1.5-2.53-1.91-3.96h2.41c.31-.75.76-1.42 1.32-2m5.1-6h-2.95a15.7 15.7 0 0 0-1.38-3.56c1.84.63 3.37 1.9 4.33 3.56M12 4.03c.83 1.2 1.5 2.54 1.91 3.97h-3.82c.41-1.43 1.08-2.77 1.91-3.97M4.26 14C4.1 13.36 4 12.69 4 12s.1-1.36.26-2h3.38c-.08.66-.14 1.32-.14 2s.06 1.34.14 2zm.82 2H8c.35 1.25.8 2.45 1.4 3.56A8 8 0 0 1 5.08 16M8 8H5.08A7.92 7.92 0 0 1 9.4 4.44C8.8 5.55 8.35 6.75 8 8m10.5 6C16 14 14 16 14 18.5s2 4.5 4.5 4.5 4.5-2 4.5-4.5-2-4.5-4.5-4.5m0 7.5c-1.66 0-3-1.34-3-3 0-.56.15-1.08.42-1.5L20 21.08c-.42.27-.94.42-1.5.42m2.58-1.5L17 15.92c.42-.27.94-.42 1.5-.42 1.66 0 3 1.34 3 3 0 .56-.15 1.08-.42 1.5"/></svg>

<svg  viewBox="0 0 24 24" fill="currentColor"><path  d="M13.82 14H9.66C9.56 13.34 9.5 12.68 9.5 12S9.56 10.65 9.66 10H14.34C14.43 10.65 14.5 11.32 14.5 12C14.5 12.5 14.46 13 14.4 13.46C15 12.96 15.72 12.57 16.5 12.32C16.5 12.21 16.5 12.11 16.5 12C16.5 11.32 16.44 10.66 16.36 10H19.74C19.9 10.64 20 11.31 20 12C20 12.06 20 12.12 20 12.18C20.7 12.35 21.35 12.63 21.95 13C22 12.68 22 12.34 22 12C22 6.5 17.5 2 12 2C6.47 2 2 6.5 2 12C2 17.5 6.5 22 12 22C12.34 22 12.68 22 13 21.95C12.59 21.29 12.29 20.55 12.13 19.75C12.09 19.82 12.05 19.89 12 19.96C11.17 18.76 10.5 17.43 10.09 16H12.5C12.81 15.25 13.26 14.58 13.82 14M18.92 8H15.97C15.65 6.75 15.19 5.55 14.59 4.44C16.43 5.07 17.96 6.34 18.92 8M12 4.03C12.83 5.23 13.5 6.57 13.91 8H10.09C10.5 6.57 11.17 5.23 12 4.03M4.26 14C4.1 13.36 4 12.69 4 12S4.1 10.64 4.26 10H7.64C7.56 10.66 7.5 11.32 7.5 12S7.56 13.34 7.64 14H4.26M5.08 16H8C8.35 17.25 8.8 18.45 9.4 19.56C7.57 18.93 6.03 17.65 5.08 16M8 8H5.08C6.03 6.34 7.57 5.06 9.4 4.44C8.8 5.55 8.35 6.75 8 8M18.5 14C16 14 14 16 14 18.5S16 23 18.5 23 23 21 23 18.5 21 14 18.5 14M18.5 21.5C16.84 21.5 15.5 20.16 15.5 18.5C15.5 17.94 15.65 17.42 15.92 17L20 21.08C19.58 21.35 19.06 21.5 18.5 21.5M21.08 20L17 15.92C17.42 15.65 17.94 15.5 18.5 15.5C20.16 15.5 21.5 16.84 21.5 18.5C21.5 19.06 21.35 19.58 21.08 20Z"/></svg>
